Adwaita++/apps/16/archittetura.svg

<svg height="16" width="16" xmlns="http://www.w3.org/2000/svg">
  <path d="m.0078125.01367188v14.00000012l1.9921875-.013672v-12h12v3l2.007811.013672v-5.00000012zm4.5 3.00000002c-.8284271 0-1.5.6715729-1.5 1.5s.6715729 1.5 1.5 1.5 1.5-.6715729 1.5-1.5-.6715729-1.5-1.5-1.5zm2.5 1-.0078125 1.4215569 5-.019162.0078-1.4023952zm-2.5 3c-.8284271 0-1.5.6715729-1.5 1.5-.0000001.8284272.6715728 1.5000001 1.5 1.5000001s1.5000001-.6715729 1.5-1.5000001c0-.8284271-.6715729-1.5-1.5-1.5zm11.4999995.6914062-13.9999995 8.3085939h13.9999995zm-9.007812-.2662565.0078125 1.5748503h4.9999995l-.007812-1.5173653zm7 3.5611784v3h-5z" fill="#444"/>
</svg>

<svg xmlns="http://www.w3.org/2000/svg" width="16" height="16" version="1.1">
 <title id="title9167">
  Gnome Symbolic Icon Theme
 </title>
 <g id="layer9" transform="translate(-223.0002,-215)">
  <path fill="#444" d="M 0.0078125,0.01367188 V 14.013672 L 2,14 V 2 h 12 v 3 l 2.007811,0.013672 V 0.01367188 Z m 4.5,3.00000002 c -0.8284271,0 -1.5,0.6715729 -1.5,1.5 0,0.8284271 0.6715729,1.5 1.5,1.5 0.8284271,0 1.5,-0.6715729 1.5,-1.5 0,-0.8284271 -0.6715729,-1.5 -1.5,-1.5 z m 2.5,1 L 7,5.4352288 l 5,-0.019162 0.0078,-1.4023952 z m -2.5,3 c -0.8284271,0 -1.5,0.6715729 -1.5,1.5 -10e-8,0.8284272 0.6715728,1.5000001 1.5,1.5000001 0.8284272,0 1.5000001,-0.6715729 1.5,-1.5000001 0,-0.8284271 -0.6715729,-1.5 -1.5,-1.5 z M 16.007812,7.7050781 2.0078125,16.013672 H 16.007812 Z M 7,7.4388216 7.0078125,9.0136719 H 12.007812 L 12,7.4963066 Z M 14,11 v 3 H 9 Z" transform="translate(223.0002,215)"/>
 </g>
</svg>
